X: 11814
T: Elley's Dance
R: jig
M: 6/8
K: Aminor
|:A3 cBA|G2B d2g|e3 ged|BAG E3|
D3 cBA|G2B d2B|cBA DGF|1 G3 G2B:|2 G3 GBd||
|:e3 ged|BdG GBd|e3 dBG|A3 D3|
G3 eBd|BdG EGD|E3 DGF|1 G3 GBd:|2 G3 G2B||

